public/images/airplane.svg

<svg width="82" height="82" viewBox="0 0 82 82" fill="none" xmlns="http://www.w3.org/2000/svg">
<path opacity="0.15" d="M16.2292 76.0209C16.2292 76.3574 16.8699 76.6906 18.1147 77.0015C19.3596 77.3124 21.1842 77.5949 23.4844 77.8328C25.7846 78.0708 28.5153 78.2595 31.5206 78.3883C34.5259 78.5171 37.747 78.5834 41 78.5834C44.2529 78.5834 47.474 78.5171 50.4794 78.3883C53.4847 78.2595 56.2154 78.0708 58.5156 77.8328C60.8158 77.5949 62.6404 77.3124 63.8853 77.0015C65.1301 76.6906 65.7708 76.3574 65.7708 76.0209C65.7708 75.6844 65.1301 75.3511 63.8853 75.0402C62.6404 74.7294 60.8158 74.4469 58.5156 74.2089C56.2154 73.971 53.4847 73.7822 50.4794 73.6534C47.474 73.5247 44.2529 73.4584 41 73.4584C37.747 73.4584 34.5259 73.5247 31.5206 73.6534C28.5153 73.7822 25.7846 73.971 23.4844 74.2089C21.1842 74.4469 19.3596 74.7294 18.1147 75.0402C16.8699 75.3511 16.2292 75.6844 16.2292 76.0209Z" fill="#45413C"/>
<path d="M30.3913 76.6871L4.2196 50.5325C4.0582 50.4044 3.9332 50.2362 3.85707 50.0447C3.78094 49.8532 3.75634 49.6451 3.78573 49.4412C3.81511 49.2372 3.89745 49.0445 4.02454 48.8823C4.15162 48.7201 4.31901 48.594 4.51002 48.5167L6.11585 47.8334C6.55533 47.6967 7.02595 47.6967 7.46543 47.8334L20.5 50.5154L30.4425 60.4579L33.1588 73.4584C33.2484 73.9161 33.2069 74.3898 33.0392 74.825L32.39 76.4138C32.3134 76.6037 32.188 76.7701 32.0264 76.8959C31.8649 77.0218 31.6729 77.1027 31.47 77.1305C31.267 77.1582 31.0604 77.1318 30.8709 77.054C30.6815 76.9761 30.516 76.8495 30.3913 76.6871Z" fill="url(#paint0_linear_53_688)"/>
<path d="M25.01 59.3476L26.9746 57.0413L20.5 50.5155L7.46543 47.8334C7.01388 47.7351 6.54308 47.7768 6.11585 47.953L4.51002 48.5851C4.31901 48.6624 4.15162 48.7885 4.02454 48.9507C3.89745 49.1129 3.81511 49.3056 3.78573 49.5095C3.75634 49.7135 3.78094 49.9216 3.85707 50.1131C3.9332 50.3046 4.0582 50.4728 4.2196 50.6009L5.92793 52.3092H6.13293C6.56016 52.133 7.03096 52.0913 7.48252 52.1896L20.5 54.7863L25.01 59.3476Z" fill="#0151A6" fill-opacity="0.14"/>
<path d="M30.3912 60.4579L29.52 59.5867L18.8942 65.2242L24.3608 70.6737C25.1997 70.6764 26.0343 70.5556 26.8379 70.315C28.7126 69.716 30.4531 68.7587 31.9629 67.4962L30.3912 60.4579Z" fill="url(#paint1_linear_53_688)"/>
<path d="M30.3913 76.6871L4.2196 50.5325C4.0582 50.4044 3.9332 50.2362 3.85707 50.0447C3.78094 49.8532 3.75634 49.6451 3.78573 49.4412C3.81511 49.2372 3.89745 49.0445 4.02454 48.8823C4.15162 48.7201 4.31901 48.594 4.51002 48.5167L6.11585 47.8334C6.55533 47.6967 7.02595 47.6967 7.46543 47.8334L20.5 50.5154L30.4425 60.4579L33.1588 73.4584C33.2484 73.9161 33.2069 74.3898 33.0392 74.825L32.39 76.4138C32.3135 76.6037 32.188 76.7701 32.0264 76.8959C31.8649 77.0218 31.6729 77.1027 31.47 77.1305C31.267 77.1582 31.0604 77.1318 30.8709 77.054C30.6815 76.9761 30.516 76.8495 30.3913 76.6871Z" stroke="#45413C" stroke-width="0.5" stroke-linecap="round" stroke-linejoin="round"/>
<path d="M68.9261 45.8346L72.3086 49.2171C72.5307 49.4392 72.7069 49.7029 72.8271 49.993C72.9473 50.2832 73.0092 50.5942 73.0092 50.9083C73.0092 51.2224 72.9473 51.5335 72.8271 51.8237C72.7069 52.1138 72.5307 52.3775 72.3086 52.5996L62.9948 61.91L56.2298 55.1467L65.5436 45.8329C65.7657 45.6108 66.0294 45.4346 66.3195 45.3144C66.6097 45.1942 66.9207 45.1323 67.2348 45.1323C67.5489 45.1323 67.86 45.1942 68.1502 45.3144C68.4403 45.4346 68.704 45.6125 68.9261 45.8346ZM31.6844 8.61514L35.0669 11.9976C35.289 12.2197 35.4652 12.4834 35.5854 12.7736C35.7057 13.0638 35.7675 13.3748 35.7675 13.6889C35.7675 14.003 35.7057 14.314 35.5854 14.6042C35.4652 14.8944 35.289 15.1581 35.0669 15.3801L25.7651 24.682L19.0001 17.917L28.3019 8.61514C28.524 8.39303 28.7877 8.21684 29.0779 8.09663C29.3681 7.97642 29.6791 7.91455 29.9932 7.91455C30.3073 7.91455 30.6183 7.97642 30.9085 8.09663C31.1987 8.21684 31.4623 8.39303 31.6844 8.61514Z" fill="#C0DCEB" stroke="#45413C" stroke-width="0.5" stroke-linecap="round" stroke-linejoin="round"/>
<path d="M64.6604 69.683L48.6021 49.183L31.6896 32.2534L11.1896 16.195C10.8594 15.9362 10.6032 15.595 10.4466 15.2057C10.2899 14.8165 10.2385 14.3929 10.2973 13.9775C10.3562 13.5621 10.5233 13.1695 10.7818 12.839C11.0404 12.5086 11.3813 12.252 11.7704 12.095L15.0333 10.7967C15.9101 10.4377 16.8755 10.3543 17.8008 10.5575L44.4167 16.2463L64.6946 36.5584L70.315 63.0546C70.49 63.9843 70.3951 64.9446 70.0417 65.8221L68.7263 69.085C68.5683 69.4681 68.3135 69.8035 67.9869 70.0584C67.6604 70.3133 67.2731 70.4791 66.8632 70.5393C66.4533 70.5996 66.0348 70.5524 65.6487 70.4023C65.2625 70.2521 64.922 70.0043 64.6604 69.683Z" fill="url(#paint2_linear_53_688)"/>
<path d="M63.1571 35.0209L64.6946 36.5413L66.625 45.6467L53.4366 55.3671L48.6191 49.2342L47.355 47.9871L63.1571 35.0209Z" fill="url(#paint3_linear_53_688)"/>
<path d="M45.4588 17.3055L42.3154 21.0809L17.8863 15.9559C16.9553 15.7513 15.9841 15.8347 15.1017 16.1951L12.4538 17.2542L11.2579 16.3146C10.9278 16.0558 10.6715 15.7146 10.5149 15.3253C10.3583 14.9361 10.3068 14.5125 10.3657 14.0971C10.4245 13.6817 10.5916 13.2891 10.8502 12.9586C11.1087 12.6282 11.4497 12.3716 11.8388 12.2146L15.1017 10.8992C15.9877 10.5539 16.9543 10.4709 17.8863 10.6601L44.4167 16.2292L45.4588 17.3055Z" fill="#0151A6" fill-opacity="0.14"/>
<path d="M64.6604 69.683L48.6021 49.183L31.6896 32.2534L11.1896 16.195C10.8594 15.9362 10.6032 15.595 10.4466 15.2057C10.2899 14.8165 10.2385 14.3929 10.2973 13.9775C10.3562 13.5621 10.5233 13.1695 10.7818 12.839C11.0404 12.5086 11.3813 12.252 11.7704 12.095L15.0333 10.7967C15.9101 10.4377 16.8755 10.3543 17.8008 10.5575L44.4167 16.2463L64.6946 36.5584L70.315 63.0546C70.49 63.9843 70.3951 64.9446 70.0417 65.8221L68.7263 69.085C68.5683 69.4681 68.3135 69.8035 67.9869 70.0584C67.6604 70.3133 67.2731 70.4791 66.8632 70.5393C66.4533 70.5996 66.0348 70.5524 65.6487 70.4023C65.2625 70.2521 64.922 70.0043 64.6604 69.683Z" stroke="#45413C" stroke-width="0.5" stroke-linecap="round" stroke-linejoin="round"/>
<path d="M15.375 59.7917L46.3642 22.5159C47.1267 21.6046 47.9924 20.7849 48.9438 20.073C56.5288 13.513 67.9746 8.88337 73.1508 14.0596C74.0408 14.9698 74.6819 16.0934 75.0129 17.3225C75.7988 13.4959 75.4058 10.0109 73.1508 7.75588C68.0258 2.63088 56.5288 7.22629 48.9438 13.7863C47.987 14.4853 47.1206 15.3001 46.3642 16.2121L15.375 53.5392C14.3247 54.7649 13.6218 56.2495 13.3394 57.8387C13.057 59.4279 13.2054 61.0638 13.7692 62.5763C14.1465 61.5655 14.6892 60.6245 15.375 59.7917Z" fill="white"/>
<path d="M67.1375 31.98C73.6975 24.395 78.3442 12.9492 73.1508 7.75585C67.9575 2.56252 56.5287 7.22627 48.9437 13.7863C47.987 14.4853 47.1206 15.3001 46.3642 16.2121L15.375 53.5392C13.9323 55.1709 13.1517 57.2831 13.1864 59.4608C13.2212 61.6386 14.0688 63.7247 15.5629 65.3096C17.1475 66.8025 19.2318 67.6507 21.4085 67.6886C23.5852 67.7266 25.6977 66.9514 27.3333 65.5146L64.7117 34.5425C65.6192 33.7877 66.4335 32.9275 67.1375 31.98Z" fill="#E8F4FA"/>
<path d="M67.1375 31.98C73.6975 24.395 78.3442 12.9492 73.1508 7.75585C67.9575 2.56252 56.5287 7.22627 48.9437 13.7863C47.987 14.4853 47.1206 15.3001 46.3642 16.2121L15.375 53.5392C13.9323 55.1709 13.1517 57.283 13.1864 59.4608C13.2212 61.6386 14.0688 63.7247 15.5629 65.3096C17.1475 66.8025 19.2318 67.6507 21.4085 67.6886C23.5852 67.7266 25.6977 66.9514 27.3333 65.5146L64.7117 34.5425C65.6192 33.7877 66.4335 32.9275 67.1375 31.98Z" stroke="#45413C" stroke-width="0.5" stroke-linecap="round" stroke-linejoin="round"/>
<path d="M66.3346 14.5721C64.9047 13.1793 63.166 12.1438 61.2601 11.5501C59.3543 10.9564 57.3351 10.8212 55.3671 11.1555L54.7863 16.2805C54.7624 16.4657 54.7822 16.6539 54.8441 16.8301C54.906 17.0062 55.0083 17.1655 55.1428 17.295C55.2773 17.4245 55.4403 17.5207 55.6186 17.576C55.797 17.6312 55.9859 17.6438 56.17 17.613C57.8784 17.3225 60.6629 17.3396 62.0979 18.7746C63.5329 20.2096 63.5671 23.0625 63.2596 24.7196C63.2287 24.9038 63.2414 25.0926 63.2966 25.271C63.3518 25.4494 63.4481 25.6124 63.5776 25.7469C63.7071 25.8814 63.8663 25.9837 64.0425 26.0456C64.2187 26.1075 64.4069 26.1273 64.5921 26.1034L69.7171 25.5225C70.0461 23.56 69.9116 21.5476 69.3243 19.6463C68.737 17.7449 67.7132 16.0073 66.3346 14.5721Z" fill="url(#paint4_linear_53_688)"/>
<path d="M55.3671 11.1213L54.7863 16.2463C54.7624 16.4315 54.7822 16.6197 54.8441 16.7959C54.906 16.972 55.0083 17.1312 55.1428 17.2608C55.2773 17.3903 55.4403 17.4865 55.6186 17.5417C55.797 17.597 55.9859 17.6096 56.17 17.5788C57.147 17.4187 58.1409 17.3899 59.1254 17.4933L66.1638 14.3329C64.7313 13.005 63.0124 12.0245 61.1401 11.4676C59.2678 10.9107 57.2925 10.7922 55.3671 11.1213Z" fill="url(#paint5_linear_53_688)"/>
<path d="M66.3346 14.5721C64.9047 13.1793 63.166 12.1438 61.2601 11.5501C59.3543 10.9564 57.3351 10.8212 55.3671 11.1555L54.7863 16.2805C54.7624 16.4657 54.7822 16.6539 54.8441 16.8301C54.906 17.0062 55.0083 17.1655 55.1428 17.295C55.2773 17.4245 55.4403 17.5207 55.6186 17.576C55.797 17.6312 55.9859 17.6438 56.17 17.613C57.8784 17.3225 60.6629 17.3396 62.0979 18.7746C63.5329 20.2096 63.5671 23.0625 63.2596 24.7196C63.2287 24.9038 63.2414 25.0926 63.2966 25.271C63.3518 25.4494 63.4481 25.6124 63.5776 25.7469C63.7071 25.8814 63.8663 25.9837 64.0425 26.0456C64.2187 26.1075 64.4069 26.1273 64.5921 26.1034L69.7171 25.5225C70.0461 23.56 69.9116 21.5476 69.3243 19.6463C68.737 17.7449 67.7132 16.0073 66.3346 14.5721Z" stroke="#45413C" stroke-width="0.5" stroke-linecap="round" stroke-linejoin="round"/>
<path d="M67.1375 31.98C69.0958 29.457 70.0907 26.3186 69.9436 23.1281C69.7964 19.9377 68.5168 16.9042 66.3346 14.5721C64.0066 12.3873 60.9739 11.1071 57.7845 10.963C54.5951 10.8189 51.4593 11.8203 48.9437 13.7863" stroke="#45413C" stroke-width="0.5" stroke-linecap="round" stroke-linejoin="round"/>
<path d="M15.5971 65.3096C15.3719 65.0857 15.1932 64.8195 15.0712 64.5264C14.9493 64.2332 14.8865 63.9188 14.8865 63.6012C14.8865 63.2837 14.9493 62.9693 15.0712 62.6761C15.1932 62.3829 15.3719 62.1168 15.5971 61.8929L24.9075 52.5825C25.1318 52.3582 25.3982 52.1802 25.6913 52.0588C25.9844 51.9374 26.2986 51.8749 26.6158 51.8749C26.9331 51.8749 27.2473 51.9374 27.5404 52.0588C27.8335 52.1802 28.0998 52.3582 28.3242 52.5825C28.5485 52.8068 28.7265 53.0732 28.8479 53.3663C28.9693 53.6594 29.0318 53.9736 29.0318 54.2908C29.0318 54.6081 28.9693 54.9223 28.8479 55.2154C28.7265 55.5085 28.5485 55.7748 28.3242 55.9992L19.0138 65.3096C18.7899 65.5348 18.5237 65.7135 18.2305 65.8355C17.9374 65.9574 17.623 66.0202 17.3054 66.0202C16.9879 66.0202 16.6735 65.9574 16.3803 65.8355C16.0871 65.7135 15.8209 65.5348 15.5971 65.3096Z" fill="url(#paint6_linear_53_688)" stroke="#45413C" stroke-width="0.5" stroke-linecap="round" stroke-linejoin="round"/>
<defs>
<linearGradient id="paint0_linear_53_688" x1="18.4893" y1="47.7308" x2="18.4893" y2="77.1412" gradientUnits="userSpaceOnUse">
<stop stop-color="#0151A6"/>
<stop offset="0.365385" stop-color="#1089D3"/>
</linearGradient>
<linearGradient id="paint1_linear_53_688" x1="25.4285" y1="59.5867" x2="25.4285" y2="70.6738" gradientUnits="userSpaceOnUse">
<stop stop-color="#0151A6"/>
<stop offset="0.365385" stop-color="#1089D3"/>
</linearGradient>
<linearGradient id="paint2_linear_53_688" x1="40.3371" y1="10.449" x2="40.3371" y2="70.5648" gradientUnits="userSpaceOnUse">
<stop stop-color="#0151A6"/>
<stop offset="0.365385" stop-color="#1089D3"/>
</linearGradient>
<linearGradient id="paint3_linear_53_688" x1="56.99" y1="35.0209" x2="56.99" y2="55.3671" gradientUnits="userSpaceOnUse">
<stop stop-color="#0151A6"/>
<stop offset="0.365385" stop-color="#1089D3"/>
</linearGradient>
<linearGradient id="paint4_linear_53_688" x1="62.3346" y1="10.9764" x2="62.3346" y2="26.1132" gradientUnits="userSpaceOnUse">
<stop stop-color="#0151A6"/>
<stop offset="0.365385" stop-color="#1089D3"/>
</linearGradient>
<linearGradient id="paint5_linear_53_688" x1="60.4701" y1="10.9393" x2="60.4701" y2="17.5952" gradientUnits="userSpaceOnUse">
<stop stop-color="#0151A6"/>
<stop offset="0.365385" stop-color="#1089D3"/>
</linearGradient>
<linearGradient id="paint6_linear_53_688" x1="21.9591" y1="51.8749" x2="21.9591" y2="66.0202" gradientUnits="userSpaceOnUse">
<stop stop-color="#0151A6"/>
<stop offset="0.365385" stop-color="#1089D3"/>
</linearGradient>
</defs>
</svg>

<svg xmlns="http://www.w3.org/2000/svg" width="82" height="82" fill="none" viewBox="0 0 82 82"><path fill="#45413c" d="M16.23 76.02c0 .337.64.67 1.885.981s3.07.594 5.37.832 5.03.427 8.036.555c3.005.13 6.226.195 9.479.195s6.474-.066 9.48-.195c3.005-.129 5.735-.317 8.036-.555s4.124-.52 5.37-.832c1.244-.31 1.885-.644 1.885-.98 0-.337-.64-.67-1.886-.98-1.245-.312-3.07-.594-5.37-.832s-5.03-.427-8.036-.556A224 224 0 0 0 41 73.458c-3.253 0-6.474.067-9.48.195-3.005.13-5.735.318-8.036.556s-4.124.52-5.37.831c-1.244.311-1.885.644-1.885.98" opacity=".15"/><path fill="url(#a)" d="M30.391 76.687 4.22 50.533a1.18 1.18 0 0 1 .29-2.016l1.606-.684c.44-.136.91-.136 1.35 0L20.5 50.515l9.942 9.943 2.717 13c.09.458.048.932-.12 1.367l-.649 1.589a1.162 1.162 0 0 1-1.999.273"/><path fill="#0151a6" fill-opacity=".14" d="m25.01 59.348 1.965-2.307-6.475-6.525-13.035-2.683a2.27 2.27 0 0 0-1.35.12l-1.605.632a1.178 1.178 0 0 0-.29 2.016l1.708 1.708h.205a2.27 2.27 0 0 1 1.35-.12L20.5 54.787z"/><path fill="url(#b)" d="m30.391 60.458-.871-.871-10.626 5.637 5.467 5.45a8.5 8.5 0 0 0 2.477-.359 15.2 15.2 0 0 0 5.125-2.819z"/><path stroke="#45413c" stroke-linecap="round" stroke-linejoin="round" stroke-width=".5" d="M30.391 76.687 4.22 50.533a1.18 1.18 0 0 1 .29-2.016l1.606-.684c.44-.136.91-.136 1.35 0L20.5 50.515l9.942 9.943 2.717 13c.09.458.048.932-.12 1.367l-.649 1.589a1.16 1.16 0 0 1-1.999.273"/><path fill="#c0dceb" stroke="#45413c" stroke-linecap="round" stroke-linejoin="round" stroke-width=".5" d="m68.926 45.835 3.383 3.382a2.393 2.393 0 0 1 0 3.383l-9.314 9.31-6.765-6.763 9.314-9.314a2.393 2.393 0 0 1 3.382.002M31.684 8.615l3.383 3.383a2.39 2.39 0 0 1 0 3.382l-9.302 9.302L19 17.917l9.302-9.302a2.39 2.39 0 0 1 3.382 0"/><path fill="url(#c)" d="m64.66 69.683-16.058-20.5-16.912-16.93-20.5-16.058a2.39 2.39 0 0 1 .58-4.1l3.263-1.298a4.66 4.66 0 0 1 2.768-.24l26.616 5.69 20.278 20.311 5.62 26.497c.175.93.08 1.89-.273 2.767l-1.316 3.263a2.39 2.39 0 0 1-4.066.598"/><path fill="url(#d)" d="m63.157 35.02 1.538 1.521 1.93 9.106-13.188 9.72-4.818-6.133-1.264-1.247z"/><path fill="#0151a6" fill-opacity=".14" d="m45.459 17.306-3.144 3.775-24.429-5.125a4.7 4.7 0 0 0-2.784.24l-2.648 1.058-1.196-.94a2.391 2.391 0 0 1 .58-4.1l3.264-1.315a4.95 4.95 0 0 1 2.784-.239l26.53 5.57z"/><path stroke="#45413c" stroke-linecap="round" stroke-linejoin="round" stroke-width=".5" d="m64.66 69.683-16.058-20.5-16.912-16.93-20.5-16.058a2.39 2.39 0 0 1 .58-4.1l3.263-1.298a4.66 4.66 0 0 1 2.768-.24l26.616 5.69 20.278 20.311 5.62 26.497c.175.93.08 1.89-.273 2.767l-1.316 3.263a2.39 2.39 0 0 1-4.066.598"/><path fill="#fff" d="m15.375 59.792 30.99-37.276a15.4 15.4 0 0 1 2.579-2.443c7.585-6.56 19.03-11.19 24.207-6.013a7.43 7.43 0 0 1 1.862 3.263c.786-3.827.393-7.312-1.862-9.567-5.125-5.125-16.622-.53-24.207 6.03a14.4 14.4 0 0 0-2.58 2.426L15.375 53.54a9.04 9.04 0 0 0-1.606 9.037 9.7 9.7 0 0 1 1.606-2.784"/><path fill="#e8f4fa" d="M67.138 31.98c6.56-7.585 11.206-19.03 6.013-24.224s-16.622-.53-24.207 6.03a14.4 14.4 0 0 0-2.58 2.426L15.375 53.54a8.73 8.73 0 0 0 .188 11.77 8.747 8.747 0 0 0 11.77.206l37.379-30.973a15 15 0 0 0 2.425-2.562"/><path stroke="#45413c" stroke-linecap="round" stroke-linejoin="round" stroke-width=".5" d="M67.138 31.98c6.56-7.585 11.206-19.03 6.013-24.224s-16.622-.53-24.207 6.03a14.4 14.4 0 0 0-2.58 2.426L15.375 53.54a8.73 8.73 0 0 0 .188 11.77 8.747 8.747 0 0 0 11.77.206l37.379-30.973a15 15 0 0 0 2.425-2.562"/><path fill="url(#e)" d="M66.335 14.572a12.68 12.68 0 0 0-10.968-3.416l-.58 5.124a1.196 1.196 0 0 0 1.383 1.333c1.708-.29 4.493-.273 5.928 1.162s1.47 4.288 1.162 5.945a1.196 1.196 0 0 0 1.332 1.383l5.125-.58a12.76 12.76 0 0 0-3.382-10.95"/><path fill="url(#f)" d="m55.367 11.121-.58 5.125a1.196 1.196 0 0 0 1.383 1.333c.977-.16 1.97-.19 2.955-.086l7.039-3.16a12.73 12.73 0 0 0-10.797-3.212"/><path stroke="#45413c" stroke-linecap="round" stroke-linejoin="round" stroke-width=".5" d="M66.335 14.572a12.68 12.68 0 0 0-10.968-3.416l-.58 5.124a1.196 1.196 0 0 0 1.383 1.333c1.708-.29 4.493-.273 5.928 1.162s1.47 4.288 1.162 5.945a1.196 1.196 0 0 0 1.332 1.383l5.125-.58a12.76 12.76 0 0 0-3.382-10.95"/><path stroke="#45413c" stroke-linecap="round" stroke-linejoin="round" stroke-width=".5" d="M67.138 31.98a13.43 13.43 0 0 0-.803-17.408 13.38 13.38 0 0 0-17.391-.786"/><path fill="url(#g)" stroke="#45413c" stroke-linecap="round" stroke-linejoin="round" stroke-width=".5" d="M15.597 65.31a2.41 2.41 0 0 1 0-3.417l9.31-9.31a2.416 2.416 0 0 1 3.417 3.416l-9.31 9.31a2.41 2.41 0 0 1-3.417 0"/><defs><linearGradient id="a" x1="18.489" x2="18.489" y1="47.731" y2="77.141" gradientUnits="userSpaceOnUse"><stop stop-color="#0151a6"/><stop offset=".365" stop-color="#1089d3"/></linearGradient><linearGradient id="b" x1="25.428" x2="25.428" y1="59.587" y2="70.674" gradientUnits="userSpaceOnUse"><stop stop-color="#0151a6"/><stop offset=".365" stop-color="#1089d3"/></linearGradient><linearGradient id="c" x1="40.337" x2="40.337" y1="10.449" y2="70.565" gradientUnits="userSpaceOnUse"><stop stop-color="#0151a6"/><stop offset=".365" stop-color="#1089d3"/></linearGradient><linearGradient id="d" x1="56.99" x2="56.99" y1="35.021" y2="55.367" gradientUnits="userSpaceOnUse"><stop stop-color="#0151a6"/><stop offset=".365" stop-color="#1089d3"/></linearGradient><linearGradient id="e" x1="62.335" x2="62.335" y1="10.976" y2="26.113" gradientUnits="userSpaceOnUse"><stop stop-color="#0151a6"/><stop offset=".365" stop-color="#1089d3"/></linearGradient><linearGradient id="f" x1="60.47" x2="60.47" y1="10.939" y2="17.595" gradientUnits="userSpaceOnUse"><stop stop-color="#0151a6"/><stop offset=".365" stop-color="#1089d3"/></linearGradient><linearGradient id="g" x1="21.959" x2="21.959" y1="51.875" y2="66.02" gradientUnits="userSpaceOnUse"><stop stop-color="#0151a6"/><stop offset=".365" stop-color="#1089d3"/></linearGradient></defs></svg>
